X: 11
T: No_117_In_the_Southern_Sky.krn
N: Derived from No_117_In_the_Southern_Sky.krn
%%abc-version 2.0
%%abcx-abcm2ps-target-version 5.9.1 (29 Sep 2008)
%%abc-creator hum2abc beta
%%abcx-conversion-date 2019/03/15 08:29:13
%%humdrum-veritas 1447265971
%%humdrum-veritas-data 4216402038
%%linebreak <none>
%%barnumbers 0
L: 1/8
M: 3/4
%%staves {1 2}
V: 1 clef=bass
V: 2 clef=bass
K: A
[V:1] E3/C/ [I:setbarnb 1]| 
[V:2] z G,, | 
[V:1] E2E4 ||  
[V:2] (3!accent!G,, z G,, (3!accent!G,, z G,, (3!accent!G,, z G,, ||  
[V:1] [M:2/4]E/C3/ A,C/B,/ | 
[V:2] [M:2/4]z4 | 
[V:1] A,2A,2- | 
[V:2] z4 | 
[V:1] A,2A,/A,3/ | 
[V:2] z4 | 
[V:1] F,/A,3/A,2 ||  
[V:2] z4 ||  
[V:1] [M:3/4]A,4E3/C/ | 
[V:2] [M:3/4]z6 | 
[V:1] E2E4 ||  
[V:2] z6 ||  
[V:1] [M:2/4]E/C3/ A,C/B,/ | 
[V:2] [M:2/4]z4 | 
[V:1] A,2A,2- | 
[V:2] z4 | 
[V:1] A,2A,/A,3/ | 
[V:2] z4 | 
[V:1] F,/A,3/A,2 | 
[V:2] z4 | 
[V:1] A,4 | 
[V:2] z4 | 
[V:1] CC (3A,CC | 
[V:2] z4 | 
[V:1] (A,4 | 
[V:2] z4 | 
[V:1] F,3/)F,/ (3F,E,F, | 
[V:2] z4 | 
[V:1] E,4- | 
[V:2] z4 | 
[V:1] E,3E, | 
[V:2] z4 | 
[V:1] E,C,E,2 ||  
[V:2] z4 ||  
[V:1] [M:3/4]E,4E,/C,3/ | 
[V:2] [M:3/4]z6 | 
[V:1] A,,3/A,,/A,,4- | 
[V:2] z6 | 
[V:1] [M:2/4]A,,4 |]  
[V:2] [M:2/4]z4 |]  



